image-search-outline.svg

<svg fill="currentColor" viewBox="0 0 24 24"><path d="M15.5 9c.7 0 1.29-.24 1.77-.73.49-.48.73-1.07.73-1.77 0-.67-.24-1.27-.73-1.77-.48-.5-1.07-.73-1.77-.73-.67 0-1.27.23-1.77.73S13 5.83 13 6.5c0 .7.23 1.29.73 1.77.5.49 1.1.73 1.77.73m3.81-.09 3.1 3.09L21 13.41l-3.14-3.1c-.78.47-1.58.69-2.39.69-1.25 0-2.31-.42-3.17-1.3-.85-.87-1.3-1.93-1.3-3.2 0-1.23.45-2.3 1.33-3.17C13.2 2.45 14.27 2 15.5 2c1.27 0 2.33.45 3.2 1.33.88.87 1.3 1.94 1.3 3.17 0 .83-.22 1.63-.69 2.41M16.5 18h-11l2.75-3.5 1.97 2.33 2.72-3.52zm1.5-5 2 2v5c0 .55-.19 1-.59 1.4-.41.39-.88.6-1.41.6H4c-.55 0-1-.21-1.4-.6-.39-.4-.6-.85-.6-1.4V6c0-.53.21-1 .6-1.41C3 4.19 3.45 4 4 4h5.5c-.3.64-.47 1.31-.5 2H4v14h14z"/></svg>

<svg  viewBox="0 0 24 24" fill="currentColor"><path  d="M15.5,9C16.2,9 16.79,8.76 17.27,8.27C17.76,7.79 18,7.2 18,6.5C18,5.83 17.76,5.23 17.27,4.73C16.79,4.23 16.2,4 15.5,4C14.83,4 14.23,4.23 13.73,4.73C13.23,5.23 13,5.83 13,6.5C13,7.2 13.23,7.79 13.73,8.27C14.23,8.76 14.83,9 15.5,9M19.31,8.91L22.41,12L21,13.41L17.86,10.31C17.08,10.78 16.28,11 15.47,11C14.22,11 13.16,10.58 12.3,9.7C11.45,8.83 11,7.77 11,6.5C11,5.27 11.45,4.2 12.33,3.33C13.2,2.45 14.27,2 15.5,2C16.77,2 17.83,2.45 18.7,3.33C19.58,4.2 20,5.27 20,6.5C20,7.33 19.78,8.13 19.31,8.91M16.5,18H5.5L8.25,14.5L10.22,16.83L12.94,13.31L16.5,18M18,13L20,15V20C20,20.55 19.81,21 19.41,21.4C19,21.79 18.53,22 18,22H4C3.45,22 3,21.79 2.6,21.4C2.21,21 2,20.55 2,20V6C2,5.47 2.21,5 2.6,4.59C3,4.19 3.45,4 4,4H9.5C9.2,4.64 9.03,5.31 9,6H4V20H18V13Z"/></svg>
